contributed-vectors/funimate.svg

<?xml version="1.0" encoding="UTF-8" standalone="no"?>
<svg
   width="192"
   height="192"
   viewBox="0 0 192 192"
   fill="none"
   version="1.1"
   id="svg18"
   sodipodi:docname="funimate.svg"
   xml:space="preserve"
   inkscape:version="1.1.1 (3bf5ae0d25, 2021-09-20)"
   xmlns:inkscape="http://www.inkscape.org/namespaces/inkscape"
   xmlns:sodipodi="http://sodipodi.sourceforge.net/DTD/sodipodi-0.dtd"
   xmlns="http://www.w3.org/2000/svg"
   xmlns:svg="http://www.w3.org/2000/svg"><defs
     id="defs22" /><sodipodi:namedview
     id="namedview20"
     pagecolor="#505050"
     bordercolor="#eeeeee"
     borderopacity="1"
     inkscape:showpageshadow="0"
     inkscape:pageopacity="0"
     inkscape:pagecheckerboard="0"
     inkscape:deskcolor="#505050"
     showgrid="false"
     inkscape:zoom="1.2291667"
     inkscape:cx="-5.2881354"
     inkscape:cy="-112.67796"
     inkscape:window-width="1884"
     inkscape:window-height="1055"
     inkscape:window-x="36"
     inkscape:window-y="0"
     inkscape:window-maximized="1"
     inkscape:current-layer="svg18"
     inkscape:pageshadow="0" /><path
     d="M135.434 168.712C165.895 150 179.609 114.541 174.135 81.1867C172.31 70.0685 168.354 59.1854 162.176 49.2347C151.309 31.7337 134.579 18.3694 115.259 11.4048C113.82 10.887 112.235 10.9619 110.851 11.6132C109.467 12.2644 108.399 13.4387 107.881 14.8776C107.363 16.3166 107.438 17.9023 108.089 19.2861C108.74 20.6698 109.915 21.7383 111.354 22.2564C128.235 28.3422 142.919 40.09 152.371 55.3112C173.782 89.7941 164.359 137.408 129.402 158.881C101.539 175.997 64.2451 170.911 43 146.99L34.2393 154.5C59.1927 182.816 102.758 188.783 135.434 168.712Z"
     fill="#96DFD3"
     id="path2" /><path
     d="M26.3932 143.816C28.7308 147.671 31.3612 151.234 34.2393 154.5L43.0088 147C40.5231 144.203 38.257 141.147 36.2512 137.84C22.1997 114.668 25.2397 84.266 43 65.0223L34.5 57.202C13.2309 80.2065 9.66894 116.238 26.3932 143.816Z"
     fill="#73ADA4"
     id="path4" /><path
     d="M49.471 45.0714C43.7776 48.4707 38.7802 52.5726 34.5 57.202L43.0206 65C46.5612 61.1678 50.686 57.7788 55.3764 54.9785C78.052 41.44 108.495 46.3321 124.5 66.8765L133.382 59.5C113.684 34.4635 76.9693 28.6536 49.471 45.0714Z"
     fill="#71A372"
     id="path6" /><path
     d="M124.5 66.8765C125.801 68.5465 127.007 70.3198 128.105 72.195C138.579 90.0786 135.964 113.455 122 127.826L129.661 136.5C147.847 118.459 151.299 88.972 138.062 66.3704C136.639 63.9399 135.073 61.6491 133.382 59.5L124.5 66.8765Z"
     fill="#98DC9A"
     id="path8" /><path
     d="M112.8 134.956C97.0462 143.96 76.3541 141.144 64.5 128.091L55.747 135.634C71.2425 152.991 98.0407 156.67 118.516 144.968C122.693 142.58 126.412 139.723 129.661 136.5L122 127.826C119.341 130.563 116.271 132.973 112.8 134.956Z"
     fill="#F9DE81"
     id="path10" /><path
     d="M49.7209 127.132C51.4556 130.266 53.49 133.11 55.7684 135.658L64.5 128.091C62.7268 126.138 61.1513 123.957 59.8197 121.551C52.9187 109.085 54.8411 92.9506 64.5 83.2006L55.8618 75.5C42.877 88.9441 40.4711 110.423 49.7209 127.132Z"
     fill="#F8C18C"
     id="path12" /><path
     d="M64.5 83.2005C66.4549 81.2271 68.7268 79.5153 71.3066 78.1483C82.3052 72.3202 96.8181 74.981 103.775 85L112.5 77.351C101.859 63.1562 81.485 59.7013 65.9077 67.9556C62.0589 69.995 58.7065 72.5547 55.8618 75.5L64.5 83.2005Z"
     fill="#FF837D"
     id="path14" /><path
     d="M102.561 123.226C118.238 116.177 122.863 96.9486 115.71 82.5667C114.778 80.6922 113.701 78.9532 112.5 77.351L103.775 85C104.364 85.8484 104.899 86.7495 105.373 87.7028C109.818 96.6393 106.959 108.601 97.8285 112.706C97.1377 113.017 96.5149 113.46 95.9956 114.012C95.4763 114.563 95.0707 115.212 94.8019 115.92C94.5332 116.628 94.4066 117.382 94.4294 118.139C94.4522 118.896 94.6238 119.641 94.9347 120.332C95.2453 121.023 95.6891 121.646 96.2405 122.165C96.7919 122.685 97.4402 123.09 98.1484 123.359C98.8566 123.628 99.6107 123.754 100.368 123.731C101.125 123.709 101.87 123.537 102.561 123.226Z"
     fill="#DC505E"
     id="path16"
     style="fill:#ba6561;fill-opacity:1" /><path
     d="m 135.434,-48.508339 c 30.461,-18.712 44.175,-54.171001 38.701,-87.525301 -1.825,-11.1182 -5.781,-22.0013 -11.959,-31.952 -10.867,-17.501 -27.597,-30.8653 -46.917,-37.8299 -1.439,-0.5178 -3.024,-0.4429 -4.408,0.2084 -1.384,0.6512 -2.452,1.8255 -2.97,3.2644 -0.518,1.439 -0.443,3.0247 0.208,4.4085 0.651,1.3837 1.826,2.4522 3.265,2.9703 16.881,6.0858 31.565,17.8336 41.017,33.0548 21.411,34.4829 11.988,82.096801 -22.969,103.569801 -27.863,17.116 -65.1569,12.03 -86.402,-11.891 l -8.7607,7.51 c 24.9534,28.316 68.5187,34.283 101.1947,14.212 z"
     fill="#96dfd3"
     id="path305" /><path
     d="m 26.3932,-73.404339 c 2.3376,3.855 4.968,7.418 7.8461,10.684 l 8.7695,-7.5 c -2.4857,-2.797 -4.7518,-5.853 -6.7576,-9.16 C 22.1997,-102.55234 25.2397,-132.95434 43,-152.19804 l -8.5,-7.8203 c -21.2691,23.0045 -24.83106,59.036 -8.1068,86.614001 z"
     fill="#73ada4"
     id="path307" /><path
     d="m 49.471,-172.14894 c -5.6934,3.3993 -10.6908,7.5012 -14.971,12.1306 l 8.5206,7.798 c 3.5406,-3.8322 7.6654,-7.2212 12.3558,-10.0215 22.6756,-13.5385 53.1186,-8.6464 69.1236,11.898 l 8.882,-7.3765 c -19.698,-25.0365 -56.4127,-30.8464 -83.911,-14.4286 z"
     fill="#71a372"
     id="path309" /><path
     d="m 124.5,-150.34384 c 1.301,1.67 2.507,3.4433 3.605,5.3185 10.474,17.8836 7.859,41.26 -6.105,55.631001 l 7.661,8.674 c 18.186,-18.041 21.638,-47.528001 8.401,-70.129601 -1.423,-2.4305 -2.989,-4.7213 -4.68,-6.8704 z"
     fill="#98dc9a"
     id="path311" /><path
     d="m 112.8,-82.264339 c -15.7538,9.004 -36.4459,6.188 -48.3,-6.865 l -8.753,7.543 c 15.4955,17.357 42.2937,21.036 62.769,9.334 4.177,-2.388 7.896,-5.245 11.145,-8.468 l -7.661,-8.674 c -2.659,2.737 -5.729,5.147 -9.2,7.13 z"
     fill="#f9de81"
     id="path313" /><path
     d="m 49.7209,-90.088339 c 1.7347,3.134 3.7691,5.978 6.0475,8.526 l 8.7316,-7.567 c -1.7732,-1.953 -3.3487,-4.134 -4.6803,-6.54 -6.901,-12.466001 -4.9786,-28.600401 4.6803,-38.350401 l -8.6382,-7.7006 c -12.9848,13.4441 -15.3907,34.923 -6.1409,51.632001 z"
     fill="#f8c18c"
     id="path315" /><path
     d="m 64.5,-134.01984 c 1.9549,-1.9734 4.2268,-3.6852 6.8066,-5.0522 10.9986,-5.8281 25.5115,-3.1673 32.4684,6.8517 l 8.725,-7.649 c -10.641,-14.1948 -31.015,-17.6497 -46.5923,-9.3954 -3.8488,2.0394 -7.2012,4.5991 -10.0459,7.5444 z"
     fill="#ff837d"
     id="path317" /><path
     d="m 102.561,-93.994339 c 15.677,-7.049001 20.302,-26.277401 13.149,-40.659301 -0.932,-1.8745 -2.009,-3.6135 -3.21,-5.2157 l -8.725,7.649 c 0.589,0.8484 1.124,1.7495 1.598,2.7028 4.445,8.9365 1.586,20.8982 -7.5445,25.0032 -0.6908,0.311 -1.3136,0.754 -1.8329,1.306 -0.5193,0.551 -0.9249,1.2 -1.1937,1.908 -0.2687,0.708 -0.3953,1.462001 -0.3725,2.219001 0.0228,0.757 0.1944,1.502 0.5053,2.193 0.3106,0.691 0.7544,1.314 1.3058,1.833 0.5514,0.52 1.1997,0.925 1.9079,1.194 0.7082,0.269 1.4623,0.395 2.2196,0.372 0.757,-0.022 1.502,-0.194 2.193,-0.505 z"
     fill="#dc505e"
     id="path319" /></svg>

<svg xmlns="http://www.w3.org/2000/svg" xml:space="preserve" width="192" height="192" fill="none"><path fill="#96DFD3" d="M135.434 168.712c30.461-18.712 44.175-54.171 38.701-87.525-1.825-11.118-5.781-22.002-11.959-31.952-10.867-17.501-27.597-30.866-46.917-37.83a5.766 5.766 0 1 0-3.905 10.851c16.881 6.086 31.565 17.834 41.017 33.055 21.411 34.483 11.988 82.097-22.969 103.57-27.863 17.116-65.157 12.03-86.402-11.891l-8.76 7.51c24.953 28.316 68.518 34.283 101.194 14.212Z"/><path fill="#73ADA4" d="M26.393 143.816A74.82 74.82 0 0 0 34.24 154.5l8.77-7.5a62.815 62.815 0 0 1-6.758-9.16C22.2 114.668 25.24 84.266 43 65.022l-8.5-7.82c-21.27 23.005-24.831 59.036-8.107 86.614Z"/><path fill="#71A372" d="M49.471 45.071A67.4 67.4 0 0 0 34.5 57.202L43.02 65a55.574 55.574 0 0 1 12.356-10.022c22.676-13.538 53.119-8.646 69.124 11.898l8.882-7.376c-19.698-25.036-56.413-30.846-83.911-14.429Z"/><path fill="#98DC9A" d="M124.5 66.876a48.647 48.647 0 0 1 3.605 5.319c10.474 17.884 7.859 41.26-6.105 55.631l7.661 8.674c18.186-18.041 21.638-47.528 8.401-70.13a60.7 60.7 0 0 0-4.68-6.87l-8.882 7.376Z"/><path fill="#F9DE81" d="M112.8 134.956c-15.754 9.004-36.446 6.188-48.3-6.865l-8.753 7.543c15.496 17.357 42.294 21.036 62.769 9.334a53.477 53.477 0 0 0 11.145-8.468L122 127.826a41.502 41.502 0 0 1-9.2 7.13Z"/><path fill="#F8C18C" d="M49.72 127.132a46.686 46.686 0 0 0 6.048 8.526l8.732-7.567a34.732 34.732 0 0 1-4.68-6.54c-6.901-12.466-4.979-28.6 4.68-38.35L55.862 75.5c-12.985 13.444-15.39 34.923-6.141 51.632Z"/><path fill="#FF837D" d="M64.5 83.2a28.028 28.028 0 0 1 6.807-5.052C82.305 72.32 96.818 74.981 103.775 85l8.725-7.649c-10.641-14.195-31.015-17.65-46.592-9.395A39.877 39.877 0 0 0 55.862 75.5l8.638 7.7Z"/><path fill="#DC505E" d="M102.561 123.226c15.677-7.049 20.302-26.277 13.149-40.66a33.692 33.692 0 0 0-3.21-5.215L103.775 85c.589.848 1.124 1.75 1.598 2.703 4.445 8.936 1.586 20.898-7.544 25.003a5.763 5.763 0 0 0-3.4 5.433 5.767 5.767 0 0 0 8.132 5.087Z" style="fill:#ba6561;fill-opacity:1"/><path fill="#96dfd3" d="M135.434-48.508c30.461-18.712 44.175-54.171 38.701-87.526-1.825-11.118-5.781-22-11.959-31.952-10.867-17.5-27.597-30.865-46.917-37.83a5.766 5.766 0 1 0-3.905 10.852c16.881 6.086 31.565 17.834 41.017 33.055 21.411 34.483 11.988 82.097-22.969 103.57C101.539-41.223 64.245-46.31 43-70.23l-8.76 7.51c24.953 28.316 68.518 34.283 101.194 14.212z"/><path fill="#73ada4" d="M26.393-73.404A74.82 74.82 0 0 0 34.24-62.72l8.77-7.5a62.815 62.815 0 0 1-6.758-9.16C22.2-102.552 25.24-132.954 43-152.198l-8.5-7.82c-21.27 23.004-24.831 59.036-8.107 86.614z"/><path fill="#71a372" d="M49.471-172.149a67.4 67.4 0 0 0-14.971 12.13l8.52 7.799a55.574 55.574 0 0 1 12.356-10.022c22.676-13.538 53.119-8.646 69.124 11.898l8.882-7.376c-19.698-25.037-56.413-30.847-83.911-14.429z"/><path fill="#98dc9a" d="M124.5-150.344a48.647 48.647 0 0 1 3.605 5.319c10.474 17.883 7.859 41.26-6.105 55.63l7.661 8.675c18.186-18.041 21.638-47.528 8.401-70.13a60.7 60.7 0 0 0-4.68-6.87z"/><path fill="#f9de81" d="M112.8-82.264c-15.754 9.004-36.446 6.188-48.3-6.865l-8.753 7.543c15.495 17.357 42.294 21.036 62.769 9.334a53.477 53.477 0 0 0 11.145-8.468L122-89.394a41.502 41.502 0 0 1-9.2 7.13z"/><path fill="#f8c18c" d="M49.72-90.088a46.686 46.686 0 0 0 6.048 8.526L64.5-89.13a34.732 34.732 0 0 1-4.68-6.54c-6.901-12.466-4.979-28.6 4.68-38.35l-8.638-7.701c-12.985 13.444-15.39 34.923-6.141 51.632z"/><path fill="#ff837d" d="M64.5-134.02a28.028 28.028 0 0 1 6.807-5.052c10.998-5.828 25.511-3.167 32.468 6.852l8.725-7.65c-10.641-14.194-31.015-17.649-46.592-9.395a39.877 39.877 0 0 0-10.046 7.545z"/><path fill="#dc505e" d="M102.561-93.994c15.677-7.05 20.302-26.278 13.149-40.66a33.692 33.692 0 0 0-3.21-5.215l-8.725 7.649c.589.848 1.124 1.75 1.598 2.702 4.445 8.937 1.586 20.899-7.544 25.004a5.763 5.763 0 0 0-3.4 5.433 5.767 5.767 0 0 0 8.132 5.087z"/></svg>
